packages/astro-components-stencil/src/icons/signal-cellular-connected-no-internet-4-bar.svg

<svg width="24" height="24" viewBox="0 0 24 24" fill="none" xmlns="http://www.w3.org/2000/svg">
<path fill-rule="evenodd" clip-rule="evenodd" d="M18 22H4.40999C3.51999 22 3.07999 20.92 3.70999 20.29L20.29 3.70002C20.92 3.07002 22 3.52002 22 4.41002V8.00002H21C19.34 8.00002 18 9.34002 18 11V22ZM21 18C21.55 18 22 17.55 22 17V11C22 10.45 21.55 10 21 10C20.45 10 20 10.45 20 11V17C20 17.55 20.45 18 21 18ZM22 22V20H20V22H22Z" fill="black"/>
</svg>

<svg xmlns="http://www.w3.org/2000/svg" viewBox="0 0 24 24"><g xmlns="http://www.w3.org/2000/svg" id="signal-cellular-connected-no-internet-4-bar" fill-rule="nonzero">
            <path d="M21 18c.55 0 1-.45 1-1v-6c0-.55-.45-1-1-1s-1 .45-1 1v6c0 .55.45 1 1 1zm-1 4h2v-2h-2v2zM4.41 22H18V11c0-1.66 1.34-3 3-3h1V4.41c0-.89-1.08-1.34-1.71-.71L3.71 20.29c-.63.63-.19 1.71.7 1.71z"/>
        </g></svg>
